X:1
T:Title
%%score { 1 | ( 2 3 ) }
L:1/8
M:3/4
K:Bb
V:1 treble nm="Grand Piano"
V:2 bass 
V:3 bass 
V:1
 z2 z2[Q:1/4=94] [DF]>[DF] | [DG]2 [DF]2 [DB]>[B,F] | [B,FA]2 [B,EG]2 [B,EG][=B,FG] | %3
 [Ge]3 [Gd] [Gc][FG] |[M:2/4] B2 A2 |[M:1/4] F>F |[M:3/4] [DG]2 [DF]2 [DB]>[B,F] | %7
 [B,FA]2 [B,EG]2 [CGc][Gd] | [Ge][CGc] [CEG]2 [EFA]2 |[M:2/4] [DFB]4 |[M:1/4] cd | %11
[M:3/4] e3 c A>F | [DG]2 [DF]2 Bc | %13
 dc BA G[G,_DG][Q:1/4=93][Q:1/4=91][Q:1/4=90][Q:1/4=88][Q:1/4=87][Q:1/4=86][Q:1/4=84][Q:1/4=83][Q:1/4=82][Q:1/4=80][Q:1/4=79][Q:1/4=77][Q:1/4=76][Q:1/4=75][Q:1/4=73][Q:1/4=72] | %14
 [A,D^F]6 |[M:1/4][Q:1/4=94] [A,EF]>[A,EF] |[M:3/4] [B,DG]2 [B,DF]2 [B,DB]>[B,F] | %17
 [B,F_A]2 [B,EG]2 [CGc][Gd] | [Gf][Ge] [CEG]2 [EFA]2 |[M:2/4] [DFB]4 |] %20
V:2
 z2 z2 [B,,B,]>[B,,B,] | [B,,B,]2 [B,,B,]2 [B,,B,]>D, | E,2 E,2 E,D, | %3
 [C,C]3 [D,=B,] [E,C][=E,_D] |[M:2/4] D2 z2 |[M:1/4] [F,A,E]>[F,A,E] | %6
[M:3/4] [B,,B,]2 [B,,B,]2 [B,,B,]>D, | E,2 E,2 E,[D,=B,] | [C,C]E, F,2 F,2 |[M:2/4] B,,4 | %10
[M:1/4] [F,A,F][F,B,F] |[M:3/4] [F,CF]3 [F,A,F] [F,CF]>[F,A,E] | [B,,B,]2 [B,,B,]2 B,[K:treble]C | %13
 DC B,A,[K:bass] G,E, | D,6 |[M:1/4] C,>C, |[M:3/4] B,,2 B,,2 B,,>D, | E,2 E,2 E,[D,=B,] | %18
 [C,C][E,C] F,2 F,2 |[M:2/4] B,,4 |] %20
V:3
 x6 | x6 | x6 | x6 |[M:2/4] [F,F]2- [F,CF]2 |[M:1/4] x2 |[M:3/4] x6 | x6 | x6 |[M:2/4] x4 | %10
[M:1/4] x2 |[M:3/4] x6 | x5[K:treble] x | x4[K:bass] x2 | x6 |[M:1/4] x2 |[M:3/4] x6 | x6 | x6 | %19
[M:2/4] x4 |] %20

